img/google.svg

<svg width="96" height="33" viewBox="0 0 96 33" fill="none" xmlns="http://www.w3.org/2000/svg">
<g id="Combined Shape 4">
<path id="Combined Shape" fill-rule="evenodd" clip-rule="evenodd" d="M19.303 16.0795H15.1029L16.5086 14.6997H24L22.8968 15.7907C22.6921 15.9764 22.5552 16.1878 22.5552 16.496V22.5235C19.0592 23.4855 16.0326 24 12.624 24C5.5941 24 0 19.4245 0 11.8291C0 6.49306 4.19492 0 13.3724 0C17.553 0 20.4778 1.2844 22.4977 2.63586L19.3042 5.79399V3.8906C17.6011 2.36376 15.6974 1.26764 12.4257 1.26764C7.25538 1.26764 3.54945 5.23419 3.54945 10.889C3.54945 16.6547 7.64658 22.5583 14.6177 22.5583C16.3378 22.5583 17.9925 22.3299 19.303 21.9135V16.0795ZM33.4129 8C28.2185 8 25 11.6897 25 15.6061C25 18.9865 27.5929 23 32.8461 23C37.8995 23 41 19.3031 41 15.3181C41 11.6062 37.97 8.00137 33.4129 8.00137V8ZM32.5511 9.0757C36.2133 9.0757 37.8442 13.7138 37.8442 17.0219C37.8442 21.9417 34.0475 22.039 33.5936 22.039C31.8561 22.039 30.6418 21.0182 29.7328 19.6794C28.9327 18.4455 28.1505 16.1531 28.1505 13.9132C28.1505 11.6821 28.9018 10.5927 30.0841 9.79117C31.051 9.19038 31.9562 9.0757 32.5498 9.0757H32.5511ZM67.4159 8C63.032 8 60.6605 10.8954 60.6605 14.1281C60.6605 16.5892 62.3505 19.3657 65.8372 19.3657H66.7193C66.7193 19.3657 66.4791 19.9745 66.4778 20.5626C66.4778 21.4301 66.7764 21.9173 67.4107 22.667C61.4112 23.0483 59 25.5727 59 28.2858C59 30.6617 61.1809 33 65.764 33C71.1898 33 74 29.8576 74 26.7736C74 24.5995 72.9617 23.4077 70.3324 21.3525C69.5592 20.7256 69.4093 20.3263 69.4093 19.8571C69.4093 19.1974 69.7806 18.7567 69.9278 18.5819L69.9359 18.5723C70.1001 18.3916 70.3434 18.1941 70.5364 18.0376L70.5365 18.0375L70.5368 18.0372C70.6363 17.9564 70.7224 17.8865 70.7772 17.8355C71.6607 17.0548 72.9084 15.8994 72.9084 13.5933C72.9084 12.0111 72.2776 10.6501 70.8404 9.37557H72.5949L73.9133 8.00026H67.4159V8ZM66.2066 9.0289C67.0021 9.0289 67.6661 9.32231 68.3674 9.93112C69.1454 10.6627 70.3884 12.6287 70.3884 15.0614C70.3884 17.6866 68.4332 18.4053 67.375 18.4053C66.8571 18.4053 66.2365 18.2541 65.711 17.8792C64.5438 17.0896 63.3851 14.9877 63.3851 12.4866C63.3851 10.2297 64.6738 9.0289 66.2066 9.0289ZM68.5174 23.6921C68.5174 23.6921 68.2769 23.6635 67.9425 23.6635C63.4409 23.7293 61.8004 25.5004 61.8004 27.5583C61.8004 30.0426 64.1944 31.5639 67.3266 31.5639C70.1801 31.5639 71.9421 30.0103 71.9421 28.0287C71.9421 26.5874 71.1417 25.7782 69.8581 24.7196C69.3067 24.2802 68.5174 23.6921 68.5174 23.6921ZM81.0301 23H74.6633L75.8299 21.8458C76.0213 21.6494 76.1105 21.4581 76.1105 21.177V1.40269H74L75.4131 0H80.8427L79.6942 1.13985C79.5659 1.26229 79.3902 1.45487 79.3902 1.83092V20.9208C79.3902 21.3294 79.6824 21.751 80.174 21.8108L82 22.0372L81.0301 23ZM82 15.2021C82 10.5765 85.8224 8 89.4207 8H89.422C93.239 8 94.9001 9.98699 95.4892 11.9602L85.2903 15.8329C86.2641 19.4302 89.0477 21.3872 91.9348 21.3872C93.454 21.3872 94.5977 20.9509 96 20.2866C95.2571 21.2202 94.2395 21.9631 93.1821 22.4205C92.1963 22.8456 91.1441 23 89.8664 23C84.7424 23 82 19.0224 82 15.2021ZM92.0807 11.7182C92.0807 10.5503 90.6851 9.05825 88.7545 9.05825C87.4783 9.05825 84.891 9.95695 84.891 13.3187C84.891 14.1202 85.0607 14.8618 85.0607 14.8618L91.3298 12.4798C91.8288 12.2953 92.0807 12.0959 92.0807 11.7182ZM51.4129 8C46.2185 8 43 11.6897 43 15.6061C43 18.9865 45.5928 23 50.8461 23C55.8995 23 59 19.3031 59 15.3181C59 11.6062 55.97 8.00137 51.4129 8.00137V8ZM50.5511 9.0757C54.2133 9.0757 55.8442 13.7138 55.8442 17.0219C55.8442 21.9417 52.0475 22.039 51.5936 22.039C49.8561 22.039 48.6418 21.0182 47.7328 19.6794C46.9327 18.4455 46.1505 16.1531 46.1505 13.9132C46.1505 11.6821 46.9018 10.5927 48.0841 9.79117C49.051 9.19038 49.9562 9.0757 50.5498 9.0757H50.5511Z" fill="white"/>
</g>
</svg>

<svg width="96" height="33" fill="none" xmlns="http://www.w3.org/2000/svg"><path fill-rule="evenodd" clip-rule="evenodd" d="M19.3 16h-4.2l1.4-1.3H24l-1.1 1a1 1 0 0 0-.3.8v6a36 36 0 0 1-10 1.5C5.6 24 0 19.4 0 11.8 0 6.5 4.2 0 13.4 0a16 16 0 0 1 9.1 2.6l-3.2 3.2v-2a9.4 9.4 0 0 0-6.9-2.5c-5.1 0-8.9 4-8.9 9.6 0 5.8 4.1 11.7 11.1 11.7a16 16 0 0 0 4.7-.7v-5.8Zm14.1-8c-5.2 0-8.4 3.7-8.4 7.6 0 3.4 2.6 7.4 7.8 7.4 5.1 0 8.2-3.7 8.2-7.7 0-3.7-3-7.3-7.6-7.3Zm-.8 1c3.6 0 5.2 4.7 5.2 8 0 5-3.8 5-4.2 5-1.7 0-3-1-3.9-2.3-.8-1.3-1.5-3.5-1.5-5.8 0-2.2.7-3.3 1.9-4.1 1-.6 1.9-.7 2.4-.7Zm34.8-1c-4.4 0-6.7 2.9-6.7 6.1 0 2.5 1.7 5.3 5.1 5.3h1s-.3.6-.3 1.2c0 .8.3 1.3 1 2-6 .4-8.5 3-8.5 5.7 0 2.4 2.2 4.7 6.8 4.7 5.4 0 8.2-3.1 8.2-6.2 0-2.2-1-3.4-3.7-5.4-.7-.7-.9-1-.9-1.5 0-.7.4-1.1.5-1.3l.6-.6.3-.2c.9-.7 2.1-1.9 2.1-4.2 0-1.6-.6-3-2-4.2h1.7L73.9 8h-6.5Zm-1.2 1c.8 0 1.5.3 2.2 1 .7.7 2 2.6 2 5 0 2.7-2 3.4-3 3.4a3 3 0 0 1-1.7-.5c-1.2-.8-2.3-3-2.3-5.4 0-2.3 1.3-3.5 2.8-3.5Zm2.3 14.7H68c-4.5 0-6.1 1.8-6.1 3.9 0 2.4 2.4 4 5.5 4 2.9 0 4.6-1.6 4.6-3.6 0-1.4-.8-2.2-2-3.3l-1.4-1ZM81 23h-6.3l1.1-1.2c.2-.2.3-.3.3-.6V1.4H74L75.4 0h5.4l-1.1 1.1c-.1.2-.3.4-.3.7V21c0 .4.3.9.8 1l1.8.1-1 1Zm1-7.8c0-4.6 3.8-7.2 7.4-7.2 3.8 0 5.5 2 6 4l-10.1 3.8c1 3.6 3.7 5.6 6.6 5.6a9 9 0 0 0 4.1-1.1c-.7 1-1.8 1.7-2.8 2.1-1 .4-2 .6-3.3.6-5.2 0-7.9-4-7.9-7.8Zm10-3.5c0-1.1-1.3-2.6-3.2-2.6-1.3 0-4 .9-4 4.2 0 .8.3 1.6.3 1.6l6.2-2.4c.5-.2.8-.4.8-.8ZM51.5 8c-5.2 0-8.4 3.7-8.4 7.6 0 3.4 2.6 7.4 7.8 7.4 5.1 0 8.2-3.7 8.2-7.7 0-3.7-3-7.3-7.6-7.3Zm-.8 1c3.6 0 5.2 4.7 5.2 8 0 5-3.8 5-4.2 5-1.7 0-3-1-3.9-2.3-.8-1.3-1.5-3.5-1.5-5.8 0-2.2.7-3.3 1.9-4.1 1-.6 1.9-.7 2.4-.7Z" fill="#fff"/></svg>
